icons/move-down.svg

<svg fill="none" height="28" viewBox="0 0 28 28" width="28" xmlns="http://www.w3.org/2000/svg"><path d="m6.80196 23.8746c-.2021-.0184-.44251-.0603-.6743-.1646l-.22715-.1252-.20211-.1645c-.18241-.1768-.31063-.3847-.40244-.5652-.12966-.255-.2331-.5495-.31837-.8568-.17084-.6157-.2962-1.3898-.38991-2.2411-.18813-1.7092-.25587-3.8547-.22894-5.9542.02697-2.1003.14853-4.1873.3452-5.7843.09774-.79365.21727-1.49775.36308-2.03006.07177-.26194.16102-.52351.27724-.74405.08565-.1625.31514-.56168.78698-.69397.58681-.16401 1.06182.11437 1.33607.37202.26633.2503.47142.58624.63316.90682.33084.65582.62183 1.54512.87105 2.45216.50273 1.82968.89761 3.96868 1.10178 5.01878.0965.4965-.22793.9766-.72439 1.0732-.4962.0964-.97628-.2266-1.07315-.7226-.21008-1.0806-.58977-3.1384-1.06958-4.88467-.1696-.61725-.34664-1.16651-.52048-1.60795-.05675.31168-.11414.67458-.16455 1.08389-.18618 1.51173-.30452 3.52963-.33089 5.58573-.02636 2.0567.03939 4.1205.21642 5.7289.08892.8077.20311 1.4715.33625 1.9513.06672.2405.13128.4093.18602.5169.00448.0089.01035.016.0143.0233.0075.0009.01626.0028.02504.0036.11902.0107.29761.0077.54374-.0197.49235-.0548 1.14742-.1972 1.9281-.4167 1.55477-.4372 3.49417-1.1498 5.39797-1.9568 1.9027-.8065 3.7408-1.6935 5.0975-2.4682.5361-.3062.9815-.5859 1.32-.8281-.1218-.0153-.2565-.0308-.4043-.043-1.0373-.0856-2.4528-.0676-3.9009-.0178-1.412.0485-2.8918.1285-3.9241.152-.5144.0117-.9813.0122-1.3111-.0197-.1316-.0127-.38-.04-.5974-.1449-.0927-.0447-.4083-.2105-.5276-.6063-.1381-.4589.0991-.803.2075-.9265 1.042-1.1869 3.2815-3.7676 5.262-6.05436.9896-1.14268 1.9147-2.21139 2.5917-2.9941.3383-.39114.6147-.71165.8066-.93365.0959-.11086.171-.19701.2218-.25577.025-.0289.0442-.05108.0572-.06617.0066-.00756.0128-.01406.0161-.01789.0015-.00164.0028-.00268.0036-.00358v-.00179c.3307-.38264.9105-.42551 1.2932-.09479.3825.33074.4236.91056.093 1.29315h-.0018c-.0008.00096-.002.00358-.0036.00537-.0033.00379-.0082.00904-.0143.01609-.0131.01514-.0318.03854-.0572.06797-.0508.05878-.126.14491-.2218.25577-.1921.22219-.4698.54214-.8085.93364-.6772.78299-1.6016 1.85271-2.5916 2.99589-1.4029 1.61982-2.9406 3.38892-4.0887 4.70762.9832-.0308 2.2196-.0927 3.5324-.1378 1.4472-.0497 2.9586-.0738 4.1138.0215.5669.0468 1.1197.1272 1.5507.279.2128.075.4683.1927.6814.3899.2368.2192.4346.556.4114.9838l-.0179.1484c-.0596.3316-.2457.5873-.372.7387-.1677.2009-.3817.3953-.6099.5759-.4602.3642-1.0859.7631-1.8011 1.1715-1.4378.8211-3.3458 1.7397-5.2925 2.5649-1.9459.8248-3.9618 1.5684-5.61613 2.0336-.82374.2316-1.58739.4034-2.22143.474-.3163.0352-.62745.0473-.91218.0215z" fill="#fff"/></svg>

<svg width="28" height="28" viewBox="0 0 28 28" fill="none" xmlns="http://www.w3.org/2000/svg">
<path d="M6.80196 23.8746C6.59986 23.8562 6.35945 23.8143 6.12766 23.71L5.90051 23.5848L5.6984 23.4203C5.51599 23.2435 5.38777 23.0356 5.29596 22.8551C5.1663 22.6001 5.06286 22.3056 4.97759 21.9983C4.80675 21.3826 4.68139 20.6085 4.58768 19.7572C4.39955 18.048 4.33181 15.9025 4.35874 13.803C4.38571 11.7027 4.50727 9.6157 4.70394 8.0187C4.80168 7.22505 4.92121 6.52095 5.06702 5.98864C5.13879 5.7267 5.22804 5.46513 5.34426 5.24459C5.42991 5.08209 5.6594 4.68291 6.13124 4.55062C6.71805 4.38661 7.19306 4.66499 7.46731 4.92264C7.73364 5.17294 7.93873 5.50888 8.10047 5.82946C8.43131 6.48528 8.7223 7.37458 8.97152 8.28162C9.47425 10.1113 9.86913 12.2503 10.0733 13.3004C10.1698 13.7969 9.84537 14.277 9.34891 14.3736C8.85271 14.47 8.37263 14.147 8.27576 13.651C8.06568 12.5704 7.68599 10.5126 7.20618 8.76633C7.03658 8.14908 6.85954 7.59982 6.6857 7.15838C6.62895 7.47006 6.57156 7.83296 6.52115 8.24227C6.33497 9.754 6.21663 11.7719 6.19026 13.828C6.1639 15.8847 6.22965 17.9485 6.40668 19.5569C6.4956 20.3646 6.60979 21.0284 6.74293 21.5082C6.80965 21.7487 6.87421 21.9175 6.92895 22.0251C6.93343 22.034 6.9393 22.0411 6.94325 22.0484C6.95075 22.0493 6.95951 22.0512 6.96829 22.052C7.08731 22.0627 7.2659 22.0597 7.51203 22.0323C8.00438 21.9775 8.65945 21.8351 9.44013 21.6156C10.9949 21.1784 12.9343 20.4658 14.8381 19.6588C16.7408 18.8523 18.5789 17.9653 19.9356 17.1906C20.4717 16.8844 20.9171 16.6047 21.2556 16.3625C21.1338 16.3472 20.9991 16.3317 20.8513 16.3195C19.814 16.2339 18.3985 16.2519 16.9504 16.3017C15.5384 16.3502 14.0586 16.4302 13.0263 16.4537C12.5119 16.4654 12.045 16.4659 11.7152 16.434C11.5836 16.4213 11.3352 16.394 11.1178 16.2891C11.0251 16.2444 10.7095 16.0786 10.5902 15.6828C10.4521 15.2239 10.6893 14.8798 10.7977 14.7563C11.8397 13.5694 14.0792 10.9887 16.0597 8.70194C17.0493 7.55926 17.9744 6.49055 18.6514 5.70784C18.9897 5.3167 19.2661 4.99619 19.458 4.77419C19.5539 4.66333 19.629 4.57718 19.6798 4.51842C19.7048 4.48952 19.724 4.46734 19.737 4.45225C19.7436 4.44469 19.7498 4.43819 19.7531 4.43436C19.7546 4.43272 19.7559 4.43168 19.7567 4.43078L19.7567 4.42899C20.0874 4.04635 20.6672 4.00348 21.0499 4.3342C21.4324 4.66494 21.4735 5.24476 21.1429 5.62735L21.1411 5.62735C21.1403 5.62831 21.1391 5.63093 21.1375 5.63272C21.1342 5.63651 21.1293 5.64176 21.1232 5.64881C21.1101 5.66395 21.0914 5.68735 21.066 5.71678C21.0152 5.77556 20.94 5.86169 20.8442 5.97255C20.6521 6.19474 20.3744 6.51469 20.0357 6.90619C19.3585 7.68918 18.4341 8.7589 17.4441 9.90208C16.0412 11.5219 14.5035 13.291 13.3554 14.6097C14.3386 14.5789 15.575 14.517 16.8878 14.4719C18.335 14.4222 19.8464 14.3981 21.0016 14.4934C21.5685 14.5402 22.1213 14.6206 22.5523 14.7724C22.7651 14.8474 23.0206 14.9651 23.2337 15.1623C23.4705 15.3815 23.6683 15.7183 23.6451 16.1461L23.6272 16.2945C23.5676 16.6261 23.3815 16.8818 23.2552 17.0332C23.0875 17.2341 22.8735 17.4285 22.6453 17.6091C22.1851 17.9733 21.5594 18.3722 20.8442 18.7806C19.4064 19.6017 17.4984 20.5203 15.5517 21.3455C13.6058 22.1703 11.5899 22.9139 9.93557 23.3791C9.11183 23.6107 8.34818 23.7825 7.71414 23.8531C7.39784 23.8883 7.08669 23.9004 6.80196 23.8746Z" fill="white"/>
</svg>
